assets/img/braze_icons/command.svg

<svg fill="none" height="24" viewBox="0 0 24 24" width="24" xmlns="http://www.w3.org/2000/svg"><path clip-rule="evenodd" d="m2 6c0-2.20914 1.79086-4 4-4s4 1.79086 4 4v2h4v-2c0-2.20914 1.7909-4 4-4s4 1.79086 4 4-1.7909 4-4 4h-2v4h2c2.2091 0 4 1.7909 4 4s-1.7909 4-4 4-4-1.7909-4-4v-2h-4v2c0 2.2091-1.79086 4-4 4s-4-1.7909-4-4 1.79086-4 4-4h2v-4h-2c-2.20914 0-4-1.79086-4-4zm6 2v-2c0-1.10457-.89543-2-2-2s-2 .89543-2 2 .89543 2 2 2zm2 2v4h4v-4zm-2 6h-2c-1.10457 0-2 .8954-2 2s.89543 2 2 2 2-.8954 2-2zm8 0v2c0 1.1046.8954 2 2 2s2-.8954 2-2-.8954-2-2-2zm0-8h2c1.1046 0 2-.89543 2-2s-.8954-2-2-2-2 .89543-2 2z" fill="#801ed7" fill-rule="evenodd"/></svg>

<svg width="24" height="24" viewBox="0 0 24 24" fill="none" xmlns="http://www.w3.org/2000/svg">
<path fill-rule="evenodd" clip-rule="evenodd" d="M2 6C2 3.79086 3.79086 2 6 2C8.20914 2 10 3.79086 10 6V8H14V6C14 3.79086 15.7909 2 18 2C20.2091 2 22 3.79086 22 6C22 8.20914 20.2091 10 18 10H16V14H18C20.2091 14 22 15.7909 22 18C22 20.2091 20.2091 22 18 22C15.7909 22 14 20.2091 14 18V16H10V18C10 20.2091 8.20914 22 6 22C3.79086 22 2 20.2091 2 18C2 15.7909 3.79086 14 6 14H8V10H6C3.79086 10 2 8.20914 2 6ZM8 8V6C8 4.89543 7.10457 4 6 4C4.89543 4 4 4.89543 4 6C4 7.10457 4.89543 8 6 8H8ZM10 10V14H14V10H10ZM8 16H6C4.89543 16 4 16.8954 4 18C4 19.1046 4.89543 20 6 20C7.10457 20 8 19.1046 8 18V16ZM16 16V18C16 19.1046 16.8954 20 18 20C19.1046 20 20 19.1046 20 18C20 16.8954 19.1046 16 18 16H16ZM16 8H18C19.1046 8 20 7.10457 20 6C20 4.89543 19.1046 4 18 4C16.8954 4 16 4.89543 16 6V8Z" fill="#801ED7"/>
</svg>
